images/icons/04d.svg

<svg viewBox="0 0 43.61 30.74" xmlns="http://www.w3.org/2000/svg"><path d="m43.61 16a10 10 0 0 0 -12.55-9.66 13 13 0 0 0 -24.12 5.66 7 7 0 0 0 .06 14h1.79a5.18 5.18 0 0 0 5.15 4.73h19.44a7.3 7.3 0 0 0 7.29-7.29c0-.12 0-.24 0-.36a10 10 0 0 0 2.94-7.08zm-34.61 8h-2a5 5 0 0 1 0-10 4.77 4.77 0 0 1 .76.07l1.14.09v-1.16a11 11 0 0 1 20.79-5l.41.78.82-.29a7.83 7.83 0 0 1 2.69-.49 8 8 0 0 1 6.51 12.66 7.27 7.27 0 0 0 -9.12-4.11 9.38 9.38 0 0 0 -17.4 3.81 5.18 5.18 0 0 0 -4.6 3.64zm24.38 4.73h-19.44a3.2 3.2 0 1 1 0-6.39 3.88 3.88 0 0 1 .48 0l1.15.12v-1.11a7.39 7.39 0 0 1 14.09-3.11l.43.94.92-.46a5.21 5.21 0 0 1 2.37-.57 5.3 5.3 0 0 1 0 10.59z" fill="#040504"/></svg>

<svg xmlns="http://www.w3.org/2000/svg" viewBox="0 0 43.61 30.74"><defs><style>.cls-1{fill:#040504;}</style></defs><title>04d</title><g id="Calque_2" data-name="Calque 2"><g id="Icons"><path class="cls-1" d="M43.61,16A10,10,0,0,0,31.06,6.34,13,13,0,0,0,6.94,12,7,7,0,0,0,7,26H8.79a5.18,5.18,0,0,0,5.15,4.73H33.38a7.3,7.3,0,0,0,7.29-7.29c0-.12,0-.24,0-.36A10,10,0,0,0,43.61,16ZM9,24H7A5,5,0,0,1,7,14a4.77,4.77,0,0,1,.76.07l1.14.09V13A11,11,0,0,1,29.69,8l.41.78.82-.29A7.83,7.83,0,0,1,33.61,8a8,8,0,0,1,6.51,12.66A7.27,7.27,0,0,0,31,16.55a9.38,9.38,0,0,0-17.4,3.81A5.18,5.18,0,0,0,9,24Zm24.38,4.73H13.94a3.2,3.2,0,1,1,0-6.39,3.88,3.88,0,0,1,.48,0l1.15.12V21.35a7.39,7.39,0,0,1,14.09-3.11l.43.94.92-.46a5.21,5.21,0,0,1,2.37-.57,5.3,5.3,0,0,1,0,10.59Z"/></g></g></svg>
